X:1
T:6 Songs, Op.7
T:Volkslied
T:4. Volkslied
T:Johannes Brahms
T:Volkslieder
T:6 Songs, Op.7
T:OpenScore (CC0)
T:OpenScore (CC0)
C:Johannes Brahms
Z:Volkslieder
Z:OpenScore (CC0)
%%score ( 1 2 ) { ( 3 6 ) | ( 4 5 ) }
L:1/8
Q:1/4=175
M:3/4
K:G
V:1 treble nm="Singstimme\nVoice"
V:2 treble 
V:3 treble nm="Pianoforte"
V:6 treble 
V:4 bass 
V:5 bass 
V:1
"^Bewegt" z6 | z6 |: z6 | z2 z2!p! B2 | B4 G2 | A4 c2 | B4 z2 |!pp! A4 c2 | B4 z2 | %9
w: |||Die|Schwäl- ble|zie- het|fort,|zie- het|fort,|
w: |||Könnt|i no|fort durch|d'Welt,|fort durch|d'Welt,|
!p!"^cresc." c2 B2 A2 | (e2 d2) c2 |!f! (g2 =f2) e2 | d4 z2 | z6 | z6 | z2 z2!p! B2 | B4 G2 | %17
w: weit an en|an- * dre,|an- * dre|Ort;|||und|i sitz|
w: weil mirs hie|gar _ net,|gar _ net|g'fällt!|||O|Schwäl- ble|
 A4 c2 |!<(! B4 d2 | c4!<)! e2 | (e2 d2) c2 |[Q:1/4=120]"^rit." B4!>(! B2 | (A2 G2)!>)!!pp! F2 | %23
w: do in|Trau- rig-|keit, es|isch _ a|bö- se,|schwe- * re|
w: komm, i|bitt, i|bitt! _|zeig mir de|Weg *|und nimm mi|
[Q:1/4=120] E6[Q:1/4=121]"^.5"[Q:1/4=123]"^.1"[Q:1/4=124]"^.6"[Q:1/4=126]"^.1"[Q:1/4=127]"^.6" | %24
w: Zeit.|
w: mit!|
[Q:1/4=129]"^.2" z6[Q:1/4=130]"^.7"[Q:1/4=132]"^.2"[Q:1/4=133]"^.8"[Q:1/4=135]"^.3"[Q:1/4=136]"^.8" | %25
w: |
w: |
[Q:1/4=138]"^.3" z6[Q:1/4=139]"^.9"[Q:1/4=141]"^.4"[Q:1/4=142]"^.9"[Q:1/4=144]"^.4"[Q:1/4=146] | %26
w: |
w: |
[Q:1/4=147]"^.5" z6[Q:1/4=149][Q:1/4=150]"^.6"[Q:1/4=152]"^.1"[Q:1/4=153]"^.6"[Q:1/4=155]"^.1" | %27
w: |
w: |
[Q:1/4=156]"^.7" z6[Q:1/4=158]"^.2"[Q:1/4=159]"^.7"[Q:1/4=161]"^.3"[Q:1/4=162]"^.8"[Q:1/4=164]"^.3" | %28
w: |
w: |
[Q:1/4=165]"^.8" z6[Q:1/4=167]"^.4"[Q:1/4=168]"^.9"[Q:1/4=170]"^.4"[Q:1/4=171]"^.9"[Q:1/4=173]"^.5" |1 %29
w: |
w: |
[Q:1/4=175] z6 | z6 :|2 z6 | z6 |] %33
w: ||||
w: ||||
V:2
 x6 | x6 |: x6 | x6 | x6 | x6 | x6 | x6 | x6 | x6 | x6 | x6 | x6 | x6 | x6 | x6 | x6 | x6 | x6 | %19
 (c4 e2) | e2 d2 c2 | B4 z2 | A2 G2 F2 | x6 | x6 | x6 | x6 | x6 | x6 |1 x6 | x6 :|2 x6 | x6 |] %33
V:3
 x6 | x6 |: EB,EB,EB, | GB,GB, [GB]B, | [GB]B,[GB]B, [EG]B, | [FA]B,[FA]B, [Ac]B, | %6
 [GB]B,[GB]B,[GB]B, | [FA]B,[FA]B, [Ac]B, | [GB]B,[GB]B,[GB]B, | [Ac]EBEAE | [Ae]E[Ad]E[Ac]E | %11
 [cg]G[c=f]G[ce]G |!>(! d6!>)! | (e2 d2 c2) | B6 | ^GEGE[GB]E | [=GB]B,[GB]B, [EG]B, | %17
 [FA]B,[FA]B, [Ac]B, | [GB]E[GB]E [Bd]E | [Ac]E[Ac]E [ce]E | [ce]"_dim."E[Bd]E[Ac]E | B4 B2 | %22
 A2 G2 F2 |[K:bass] G,6 | E6- | E6 | E6- | E6 | G,E,G,E,G,E, |1 G,E,G,E,G,E, | B,G,B,G,B,G, :|2 %31
 [E,G,]6- | [E,G,]4 z2 |] %33
V:4
!p! G,E,G,E,G,E, | B,G,B,G,B,G, |:!p! z6 | z6 | [E,,B,,E,]4 [E,G,]2 | [F,A,]4 [A,C]2 | [E,G,]4 z2 | %7
!pp! [E,,B,,]4 z2 | [E,,B,,]4 z2 |!p!"^cresc." (E,2 D,2 C,2) | (C2 B,2 A,2) |!f! (E2 D2 C2) | G,6 | %13
!p! (C2 B,2 A,2) | E,6- |!>(! E,4 z2!>)! | [E,,B,,E,]4 [E,G,]2 | [F,A,]4 [A,C]2 | [G,B,]4 [B,D]2 | %19
 [A,C]4 [A,,E,]2 | [A,,E,]6 | [B,,E,]6 | [B,,,B,,]6 |!pp! [E,,B,,]6 | (C,2 B,,2 A,,2) | [E,,G,,]6 | %26
!>(! (A,,2 G,,2 F,,2) | [E,,B,,]4 z2 | [E,,B,,]4 z2!>)! |1!<(! [E,,B,,]6- | [E,,B,,]2 z2 z2!<)! :|2 %31
 [E,,B,,]6- | [E,,B,,]4 z2 |] %33
V:5
 z6 | z6 |: x6 | x6 | x6 | E,6 | x6 | x6 | x6 | E,,6 | E,6 | G,6 | G,6 | E,6 | E,6 | x6 | x6 | %17
 E,6 | E,6 | E,4 x2 | x6 | x6 | x6 | x6 | E,,6 | x6 | E,,6 | x6 | x6 |1 x6 | x6 :|2 x6 | x6 |] %33
V:6
 x6 | x6 |: x6 | x6 | x6 | x6 | x6 | x6 | x6 | x6 | x6 | x6 | BGBGBG | eEdEcE | ^GEGEGE | x6 | x6 | %17
 x6 | x6 | x6 | x6 | GB,GB,GB, | FB,EB,^DA, |[K:bass] EE,EE,EE, | EE,DE,CE, | B,E,B,E,B,E, | %26
 CE,B,E,A,E, | G,E,G,E,G,E, | x6 |1 x6 | x6 :|2 x6 | x6 |] %33

